X: 2257
Q: "Irish Jig."
M: 6/8
L: 1/8
K: G
uD |\
vG2vB uB2ud | d2c A2F | G2B d2d | d3- d2uB |\
cBc A2A | BAB GAB | c2A G2F | G3- G2 ::\
uB |\
vG2vg ug2ue | e2d d2B | G2g g2e | d3 cBA |
dcB dcB | gfe dBA | GED G2G | G3- G2 :|


